X: 29
T: Fair Mary Mulholland
M: 3/4
L: 1/4
B: "O'Neill's 29"
N: "With feeling" "collected by J. O'Neill"
Z: "Transcribed by Norbert Paap, norbertp@bdu.uva.nl"
K:D
D | D2-G | (G A B) | =c2-B | (A G F) |\
G2-F | DzD | (D3 | D)z=c |
B2-G | (A B ^c) | d2-e | B2-A |\
(B c d) | (A G F) | (G3 | G2) =c |
B2-G | (A B ^c) | d2-e | B2-A |\
(B c d) | A2-F | (G3 | G) F-G |
(A B c) | d2-e | =c2-B | (A G F) |\
G2-F | D2 D | (D3 | D2) |:|


